brandFactory_export/2.Regular/Valoracion_2Regular.svg

<?xml version="1.0" encoding="UTF-8"?>
<svg width="24px" height="24px" viewBox="0 0 24 24" version="1.1" xmlns="http://www.w3.org/2000/svg" xmlns:xlink="http://www.w3.org/1999/xlink">
    <title>2.Regular/Valoracion_2Regular</title>
    <g id="Symbols" stroke="none" stroke-width="1" fill="none" fill-rule="evenodd">
        <g id="2.Regular/Valoracion_2Regular" fill="#5CB615" fill-rule="nonzero">
            <path d="M21.8756303,19.3260504 C22.0268908,19.3260504 22.1478992,19.2084034 22.1478992,19.0638655 L22.1478992,8.21008403 L1.47563025,8.21008403 L1.47563025,19.0605042 C1.47563025,19.205042 1.59663866,19.3226891 1.74789916,19.3226891 L21.8756303,19.3226891 L21.8756303,19.3260504 Z M1.74789916,4.4487395 C1.59663866,4.4487395 1.47563025,4.56638655 1.47563025,4.71092437 L1.47563025,6.78823529 L22.1478992,6.78823529 L22.1478992,4.71092437 C22.1478992,4.56638655 22.0268908,4.4487395 21.8756303,4.4487395 L1.74789916,4.4487395 L1.74789916,4.4487395 Z M21.8756303,3.02689076 C22.8403361,3.02689076 23.6235294,3.78319328 23.6235294,4.71092437 L23.6235294,19.0605042 C23.6235294,19.9882353 22.8403361,20.7445378 21.8756303,20.7445378 L1.74789916,20.7445378 C0.783193277,20.7445378 0,19.9882353 0,19.0605042 L0,4.71092437 C0,3.78319328 0.783193277,3.02689076 1.74789916,3.02689076 L21.8756303,3.02689076 Z M5.00504202,6.17983193 C4.62857143,6.17983193 4.32268908,5.88403361 4.32268908,5.5210084 C4.32268908,5.15798319 4.62857143,4.86218487 5.00504202,4.86218487 C5.38487395,4.86218487 5.68739496,5.15798319 5.68739496,5.5210084 C5.68739496,5.88403361 5.38487395,6.17983193 5.00504202,6.17983193 Z M7.05882353,6.17983193 C6.6789916,6.17983193 6.37647059,5.88403361 6.37647059,5.5210084 C6.37647059,5.15798319 6.68235294,4.86218487 7.05882353,4.86218487 C7.43865546,4.86218487 7.74117647,5.15798319 7.74117647,5.5210084 C7.74117647,5.88403361 7.43529412,6.17983193 7.05882353,6.17983193 Z M2.95462185,6.17983193 C2.57478992,6.17983193 2.27226891,5.88403361 2.27226891,5.5210084 C2.27226891,5.15798319 2.57815126,4.86218487 2.95462185,4.86218487 C3.33445378,4.86218487 3.63697479,5.15798319 3.63697479,5.5210084 C3.63697479,5.88403361 3.33109244,6.17983193 2.95462185,6.17983193 Z M12.9512605,13.3563025 L13.4487395,12.8689076 L12.7932773,12.7747899 C12.487395,12.7277311 12.2117647,12.5327731 12.0773109,12.2638655 L11.8117647,11.7193277 L11.5462185,12.2571429 C11.4117647,12.5294118 11.1327731,12.7310924 10.8235294,12.7747899 L10.1747899,12.8689076 L10.6722689,13.3529412 C10.8840336,13.5579832 10.9848739,13.8739496 10.9344538,14.1563025 L10.8235294,14.7983193 L11.3579832,14.5193277 C11.4957983,14.4453782 11.6537815,14.405042 11.8117647,14.405042 C11.9630252,14.405042 12.1142857,14.4420168 12.2453782,14.5092437 L12.8,14.8016807 L12.6890756,14.1596639 C12.6420168,13.8739496 12.7428571,13.5613445 12.9512605,13.3563025 Z M14.1546218,12.0621849 C14.3865546,12.0957983 14.5781513,12.2537815 14.6554622,12.4756303 C14.7327731,12.7042017 14.6756303,12.9529412 14.5042017,13.1243697 L13.6201681,13.9882353 C13.6134454,13.994958 13.610084,14.005042 13.6134454,14.0117647 L13.8218487,15.2319328 C13.8621849,15.4739496 13.7613445,15.7092437 13.5596639,15.8504202 C13.4521008,15.9243697 13.3310924,15.9579832 13.2067227,15.9579832 C13.1058824,15.9579832 13.005042,15.9344538 12.9109244,15.887395 L11.8184874,15.312605 C11.8151261,15.312605 11.8151261,15.3092437 11.8117647,15.3092437 C11.8084034,15.3092437 11.8084034,15.3092437 11.805042,15.312605 L10.712605,15.887395 C10.6218487,15.9344538 10.5176471,15.9579832 10.4168067,15.9579832 C10.292437,15.9579832 10.1680672,15.9210084 10.0605042,15.8504202 C9.85546218,15.712605 9.75798319,15.4739496 9.79831933,15.2319328 L10.0067227,14.0117647 C10.010084,14.0016807 10.0067227,13.994958 10,13.9882353 L9.11596639,13.1243697 C8.94117647,12.9529412 8.88403361,12.707563 8.96470588,12.4756303 C9.04201681,12.2537815 9.23361345,12.0957983 9.46554622,12.0621849 L10.6857143,11.8840336 C10.6890756,11.8840336 10.6957983,11.8773109 10.6991597,11.8739496 L11.2470588,10.7647059 C11.3512605,10.5495798 11.5663866,10.4151261 11.8084034,10.4151261 C12.0504202,10.4151261 12.2655462,10.5495798 12.3697479,10.7647059 L12.9142857,11.8739496 C12.9176471,11.8773109 12.9210084,11.8840336 12.9277311,11.8840336 L14.1546218,12.0621849 L14.1546218,12.0621849 Z M19.6806723,13.3563025 L20.1781513,12.8689076 L19.5226891,12.7747899 C19.210084,12.7277311 18.9344538,12.5260504 18.8,12.2504202 L18.5378151,11.7193277 L18.2722689,12.2571429 C18.1378151,12.5294118 17.8588235,12.7310924 17.5495798,12.7747899 L16.9008403,12.8689076 L17.3983193,13.3529412 C17.6067227,13.5579832 17.7109244,13.8739496 17.6605042,14.1563025 L17.5495798,14.7983193 L18.0840336,14.5193277 C18.2218487,14.4453782 18.3831933,14.405042 18.5378151,14.405042 C18.6857143,14.405042 18.8403361,14.4420168 18.9747899,14.5092437 L19.5294118,14.8016807 L19.4184874,14.1596639 C19.3714286,13.8739496 19.4722689,13.5613445 19.6806723,13.3563025 L19.6806723,13.3563025 Z M20.8840336,12.0621849 C21.1159664,12.0957983 21.307563,12.2537815 21.3848739,12.4756303 C21.4621849,12.7042017 21.405042,12.9529412 21.2336134,13.1243697 L20.3495798,13.9882353 C20.3428571,13.994958 20.3394958,14.005042 20.3428571,14.0117647 L20.5512605,15.2319328 C20.5915966,15.4739496 20.4907563,15.7092437 20.2890756,15.8504202 C20.1815126,15.9243697 20.0605042,15.9579832 19.9361345,15.9579832 C19.8352941,15.9579832 19.7344538,15.9344538 19.6403361,15.887395 L18.5478992,15.312605 C18.5445378,15.312605 18.5445378,15.3092437 18.5411765,15.3092437 C18.5378151,15.3092437 18.5378151,15.3092437 18.5378151,15.312605 L17.4453782,15.887395 C17.3512605,15.9344538 17.2504202,15.9579832 17.1495798,15.9579832 C17.0252101,15.9579832 16.9008403,15.9210084 16.7932773,15.8504202 C16.5882353,15.712605 16.4907563,15.4739496 16.5310924,15.2319328 L16.7394958,14.0117647 C16.7428571,14.0016807 16.7394958,13.994958 16.7327731,13.9882353 L15.8487395,13.1243697 C15.6773109,12.9529412 15.6168067,12.707563 15.697479,12.4756303 C15.7747899,12.2537815 15.9663866,12.0957983 16.1983193,12.0621849 L17.4184874,11.8840336 C17.4218487,11.8840336 17.4285714,11.8773109 17.4319328,11.8739496 L17.9764706,10.7647059 C18.0806723,10.5495798 18.2991597,10.4151261 18.5378151,10.4151261 C18.7798319,10.4151261 18.994958,10.5495798 19.102521,10.7647059 L19.6470588,11.8739496 C19.6504202,11.8773109 19.6537815,11.8840336 19.6605042,11.8840336 L20.8840336,12.0621849 Z M6.22184874,13.3563025 L6.71932773,12.8689076 L6.06386555,12.7747899 C5.75798319,12.7277311 5.48235294,12.5327731 5.34789916,12.2638655 L5.08235294,11.7193277 L4.81680672,12.2571429 C4.68235294,12.5294118 4.40336134,12.7310924 4.09411765,12.7747899 L3.44201681,12.8689076 L3.9394958,13.3529412 C4.14789916,13.5579832 4.25210084,13.8739496 4.20168067,14.1563025 L4.09411765,14.7983193 L4.62857143,14.5193277 C4.76638655,14.4453782 4.92773109,14.405042 5.08235294,14.405042 C5.23361345,14.405042 5.38487395,14.4420168 5.51932773,14.5092437 L6.07394958,14.8016807 L5.96302521,14.1596639 C5.91260504,13.8739496 6.01344538,13.5613445 6.22184874,13.3563025 L6.22184874,13.3563025 Z M7.42521008,12.0621849 C7.65714286,12.0957983 7.8487395,12.2537815 7.92605042,12.4756303 C8.00336134,12.7042017 7.94621849,12.9529412 7.77142857,13.1243697 L6.88739496,13.9882353 C6.88067227,13.994958 6.87731092,14.005042 6.88067227,14.0117647 L7.08907563,15.2319328 C7.12941176,15.4739496 7.02857143,15.7092437 6.82352941,15.8504202 C6.71932773,15.9243697 6.59495798,15.9579832 6.47058824,15.9579832 C6.3697479,15.9579832 6.26890756,15.9344538 6.17478992,15.887395 L5.08235294,15.312605 C5.0789916,15.312605 5.0789916,15.3092437 5.07563025,15.3092437 C5.07226891,15.3092437 5.07226891,15.3092437 5.07226891,15.312605 L3.97983193,15.887395 C3.88907563,15.9344538 3.78487395,15.9579832 3.68403361,15.9579832 C3.55966387,15.9579832 3.43529412,15.9210084 3.32773109,15.8504202 C3.12268908,15.712605 3.02521008,15.4739496 3.06554622,15.2319328 L3.27394958,14.0117647 C3.27394958,14.0016807 3.27394958,13.994958 3.26722689,13.9882353 L2.38319328,13.1243697 C2.21176471,12.9529412 2.1512605,12.707563 2.23193277,12.4756303 C2.3092437,12.2537815 2.50084034,12.0957983 2.73277311,12.0621849 L3.95294118,11.8840336 C3.95630252,11.8840336 3.96302521,11.8773109 3.96638655,11.8739496 L4.51092437,10.7647059 C4.61512605,10.5495798 4.83361345,10.4151261 5.07226891,10.4151261 C5.31428571,10.4151261 5.52941176,10.5495798 5.63697479,10.7647059 L6.18151261,11.8739496 C6.18487395,11.8773109 6.18823529,11.8840336 6.19495798,11.8840336 L7.42521008,12.0621849 Z" id="Valoracion_2Regular"></path>
        </g>
    </g>
</svg>

<svg width="24" height="24" viewBox="0 0 24 24" xmlns="http://www.w3.org/2000/svg"><path d="M21.876 19.326a.267.267 0 00.272-.262V8.21H1.476v10.85c0 .145.12.263.272.263h20.128v.003zM1.748 4.45a.267.267 0 00-.272.262v2.077h20.672V4.711a.267.267 0 00-.272-.262H1.748zm20.128-1.422c.964 0 1.748.756 1.748 1.684v14.35c0 .927-.784 1.684-1.748 1.684H1.748C.783 20.745 0 19.988 0 19.06V4.71c0-.928.783-1.684 1.748-1.684h20.128zM5.005 6.18a.672.672 0 01-.682-.659c0-.363.306-.659.682-.659a.67.67 0 01.682.659.67.67 0 01-.682.659zm2.054 0a.67.67 0 01-.683-.659c0-.363.306-.659.683-.659a.67.67 0 01.682.659.672.672 0 01-.682.659zm-4.104 0a.67.67 0 01-.683-.659c0-.363.306-.659.683-.659a.67.67 0 01.682.659.672.672 0 01-.682.659zm9.996 7.176l.498-.487-.656-.094a.973.973 0 01-.716-.511l-.265-.545-.266.538a.97.97 0 01-.722.518l-.65.094.498.484a.922.922 0 01.262.803l-.11.642.534-.279a.967.967 0 01.887-.01l.555.293-.11-.642a.939.939 0 01.261-.804zm1.204-1.294a.623.623 0 01.35 1.062l-.885.864c-.007.007-.01.017-.007.024l.209 1.22a.623.623 0 01-.615.726.66.66 0 01-.296-.07l-1.093-.575c-.003 0-.003-.004-.006-.004-.004 0-.004 0-.007.004l-1.092.574a.65.65 0 01-.652-.037.614.614 0 01-.263-.618l.209-1.22c.003-.01 0-.017-.007-.024l-.884-.864a.613.613 0 01-.151-.648.623.623 0 01.5-.414l1.22-.178c.004 0 .01-.007.014-.01l.548-1.11a.619.619 0 01.561-.349c.242 0 .458.135.562.35l.544 1.109c.004.003.007.01.014.01l1.227.178zm5.526 1.294l.497-.487-.655-.094a.972.972 0 01-.723-.525l-.262-.53-.266.537a.97.97 0 01-.722.518l-.65.094.498.484a.932.932 0 01.263.803l-.111.642.534-.279a.977.977 0 01.454-.114c.148 0 .302.037.437.104l.554.293-.11-.642a.939.939 0 01.262-.804zm1.203-1.294a.623.623 0 01.35 1.062l-.884.864c-.007.007-.01.017-.007.024l.208 1.22a.623.623 0 01-.615.726.66.66 0 01-.296-.07l-1.092-.575c-.003 0-.003-.004-.007-.004-.003 0-.003 0-.003.004l-1.093.574a.651.651 0 01-.652-.037.614.614 0 01-.262-.618l.208-1.22c.004-.01 0-.017-.006-.024l-.884-.864a.623.623 0 01.35-1.062l1.22-.178c.003 0 .01-.007.013-.01l.544-1.11a.627.627 0 011.126 0l.545 1.11c.003.003.007.01.014.01l1.223.178zM6.222 13.356l.497-.487-.655-.094a.973.973 0 01-.716-.511l-.266-.545-.265.538a.97.97 0 01-.723.518l-.652.094.497.484a.932.932 0 01.263.803l-.108.642.535-.279a.977.977 0 01.453-.114c.152 0 .303.037.437.104l.555.293-.111-.642a.927.927 0 01.259-.804zm1.203-1.294a.623.623 0 01.346 1.062l-.884.864c-.006.007-.01.017-.006.024l.208 1.22a.619.619 0 01-.265.618.607.607 0 01-.353.108.66.66 0 01-.296-.07l-1.093-.575c-.003 0-.003-.004-.006-.004-.004 0-.004 0-.004.004l-1.092.574a.65.65 0 01-.652-.037.614.614 0 01-.262-.618l.208-1.22c0-.01 0-.017-.007-.024l-.884-.864a.623.623 0 01.35-1.062l1.22-.178c.003 0 .01-.007.013-.01l.545-1.11a.627.627 0 011.126 0l.545 1.11c.003.003.006.01.013.01l1.23.178z" fill="#5CB615" fill-rule="nonzero"/></svg>
